X:1005
T:Crieff Fair
P:Crieff Fair
C:Bremner, 1760
R:Reel (8x24)
B:RSCDS 10-5
Z:Anselm Lingnau <anselm@strathspey.org>
M:C|
L:1/8
K:Dm
|:d|"Dm"ABAG FGAB|"F"cdcA cdcB|"Dm"ABAG FGAg|"Dm"fd"A7"e^c "Dm"d2 d:|
|:A|"Dm"defg afge|"F"fdcA FGAc|"Dm"defg "Bb"afge|"A7"fde^c "Dm"d2 d:|
|:A|"Dm"defg afge|"F"fdcA FGAc|"F"AcFc "Gm"dbag|"A7"fde^c "Dm"d2 d:|
